src/img/ic_metamask_16.svg

<svg height="16" viewBox="0 0 16 16" width="16" xmlns="http://www.w3.org/2000/svg"><path d="m0 0h16v16h-16z" fill="none"/><path d="m60.75 169.036 1.752.465v-.608l.143-.143h1v1.216h-1.071l-1.323-.572z" fill="#cdbdb2" transform="translate(-55.688 -155.848)"/><path d="m0 .93 1.716-.465v.608l.143.143h1v-1.216h-1.071l-1.323.572z" fill="#cdbdb2" transform="matrix(-1 0 0 -1 10.784 14.118)"/><path d="m75.375 27 .858 2 .393 5.829h1.395l.429-5.829.787-2z" fill="#f89c35" transform="translate(-69.383 -23.109)"/><path d="m1.564 80.386-1 2.9 2.5-.143h1.611v-1.255l-.075-2.575-.358.286z" fill="#f89d35" transform="translate(.673 -72.097)"/><path d="m46.125 101.25 2.932.072-.322 1.5-1.395-.358z" fill="#d87c30" transform="translate(-41.992 -92.639)"/><path d="m46.125 101.813 1.216 1.144v1.143z" fill="#ea8d3a" transform="translate(-41.992 -93.166)"/><path d="m65.25 120.375 1.43.358.465 1.538-.322.179-1.573-.93z" fill="#f89d35" transform="translate(-59.902 -110.548)"/><path d="m61.036 138.375-.286 2.217 1.9-1.323z" fill="#eb8f35" transform="translate(-55.688 -127.404)"/><path d="m86.983 102.375.179 3.04-.536-1.556z" fill="#ea8e3a" transform="translate(-79.918 -93.692)"/><path d="m39.375 138.411 1.645-.036-.286 2.217z" fill="#d87c30" transform="translate(-35.672 -127.404)"/><path d="m1.35 142.085 3.04-.966-1.36-2.181-2.467.179z" fill="#eb8f35" transform="translate(.673 -127.931)"/><path d="m48.843 58.5-1.538 1.287-1.18 1.43 2.932.107z" fill="#e8821e" transform="translate(-41.992 -52.607)"/><path d="m60.75 153.761 1.9-1.323-.143 1.144v.644l-1.287-.25z" fill="#dfcec3" transform="translate(-55.688 -140.573)"/><path d="m0 .465 1.86 1.323-.144-1.144v-.644l-1.287.25z" fill="#dfcec3" transform="matrix(-1 0 0 -1 10.784 13.653)"/><path d="m.393.823-.393-.823 1.395.358z" fill="#393939" transform="matrix(-1 0 0 -1 6.671 10.149)"/><path d="m12.375.563 4.863 3.683-.822-2z" fill="#e88f35" transform="translate(-10.388 1.647)"/><path d="m2.894.563-.644 1.966.358 2.146-.25.143.358.322-.286.25.393.358-.25.215.572.715 2.682-.822a23.486 23.486 0 0 0 1.93-1.61q-.036-.036-4.863-3.683z" fill="#8e5a30" transform="translate(-.907 1.648)"/><g transform="matrix(-1 0 0 -1 14.61 14.154)"><path d="m1 2.9-1-2.9 2.5.143h1.612v1.252l-.071 2.574-.358-.286z" fill="#f89d35" transform="translate(0 2.968)"/><path d="m0 1.573 2.932-.073-.322-1.5-1.394.358z" fill="#d87c30" transform="translate(2.897 3.969)"/><path d="m0 2.289 1.216-1.145v-1.144z" fill="#ea8d3a" transform="translate(2.897 3.218)"/><path d="m0 2.074 1.43-.358.47-1.537-.327-.179-1.573.93z" fill="#f89d35" transform="translate(4.112 2.253)"/><path d="m.286 2.217-.286-2.217 1.86 1.287z" fill="#eb8f35" transform="translate(3.826 .966)"/><path d="m.358 3.04.178-3.04-.536 1.556z" fill="#ea8e3a" transform="translate(5.471 2.432)"/><path d="m0 2.181 1.645.036-.286-2.217z" fill="#d87c30" transform="translate(2.467 .966)"/><path d="m.787 0 3.04.966-1.36 2.181-2.467-.179z" fill="#eb8f35"/><path d="m2.718 2.825-1.538-1.287-1.18-1.431 2.932-.107z" fill="#e8821e" transform="translate(2.897 5.435)"/><path d="m.393 0-.393.823 1.395-.358z" fill="#393939" transform="matrix(-1 0 0 -1 5.435 4.828)"/><path d="m0 3.683 4.863-3.683-.822 2z" fill="#e88f35" transform="translate(.751 8.261)"/><path d="m.644 6.115-.644-1.967.358-2.148-.251-.14.358-.322-.286-.25.393-.358-.25-.215.572-.715 2.682.822a23.486 23.486 0 0 1 1.931 1.61q-.036.035-4.863 3.683z" fill="#8e5a30" transform="translate(.107 5.829)"/></g></svg>

<svg id="ic_metamask_hover_16" xmlns="http://www.w3.org/2000/svg" width="16" height="16" viewBox="0 0 16 16">
  <rect id="base" width="16" height="16" fill="none"/>
  <g id="metamask_hover" transform="translate(1.236 2.21)">
    <path id="Path_1494" data-name="Path 1494" d="M60.75,169.036l1.752.465v-.608l.143-.143h1v1.216H62.574l-1.323-.572Z" transform="translate(-56.924 -158.058)" fill="#cdbdb2"/>
    <path id="Path_1495" data-name="Path 1495" d="M0,.93,1.716.465v.608l.143.143h1V0H1.788L.465.572Z" transform="translate(9.548 11.908) rotate(180)" fill="#cdbdb2"/>
    <path id="Path_1497" data-name="Path 1497" d="M75.375,27l.858,2,.393,5.829h1.395L78.45,29l.787-2Z" transform="translate(-70.619 -25.319)" fill="#f89c35"/>
    <path id="Path_1498" data-name="Path 1498" d="M1.564,80.386l-1,2.9,2.5-.143H4.675V81.888L4.6,79.313l-.358.286Z" transform="translate(-0.563 -74.307)" fill="#f89d35"/>
    <path id="Path_1499" data-name="Path 1499" d="M46.125,101.25l2.932.072-.322,1.5-1.395-.358Z" transform="translate(-43.228 -94.849)" fill="#d87c30"/>
    <path id="Path_1500" data-name="Path 1500" d="M46.125,101.813l1.216,1.144V104.1Z" transform="translate(-43.228 -95.376)" fill="#ea8d3a"/>
    <path id="Path_1501" data-name="Path 1501" d="M65.25,120.375l1.43.358.465,1.538-.322.179-1.573-.93Z" transform="translate(-61.138 -112.758)" fill="#f89d35"/>
    <path id="Path_1502" data-name="Path 1502" d="M61.036,138.375l-.286,2.217,1.9-1.323Z" transform="translate(-56.924 -129.614)" fill="#eb8f35"/>
    <path id="Path_1503" data-name="Path 1503" d="M86.983,102.375l.179,3.04-.536-1.556Z" transform="translate(-81.154 -95.902)" fill="#ea8e3a"/>
    <path id="Path_1504" data-name="Path 1504" d="M39.375,138.411l1.645-.036-.286,2.217Z" transform="translate(-36.908 -129.614)" fill="#d87c30"/>
    <path id="Path_1505" data-name="Path 1505" d="M1.35,142.085l3.04-.966L3.03,138.938l-2.467.179Z" transform="translate(-0.563 -130.141)" fill="#eb8f35"/>
    <path id="Path_1506" data-name="Path 1506" d="M48.843,58.5l-1.538,1.287-1.18,1.43,2.932.107Z" transform="translate(-43.228 -54.817)" fill="#e8821e"/>
    <path id="Path_1507" data-name="Path 1507" d="M60.75,153.761l1.9-1.323-.143,1.144v.644l-1.287-.25Z" transform="translate(-56.924 -142.783)" fill="#dfcec3"/>
    <path id="Path_1508" data-name="Path 1508" d="M0,.465,1.86,1.788,1.716.644V0L.429.25Z" transform="translate(9.548 11.443) rotate(180)" fill="#dfcec3"/>
    <path id="Path_1509" data-name="Path 1509" d="M.393.823,0,0,1.395.358Z" transform="translate(5.435 7.939) rotate(180)" fill="#393939"/>
    <path id="Path_1510" data-name="Path 1510" d="M12.375.563l4.863,3.683-.822-2Z" transform="translate(-11.624 -0.563)" fill="#e88f35"/>
    <path id="Path_1511" data-name="Path 1511" d="M2.894.563,2.25,2.529l.358,2.146-.25.143.358.322-.286.25.393.358-.25.215.572.715,2.682-.822A23.486,23.486,0,0,0,7.757,4.246Q7.721,4.21,2.894.563Z" transform="translate(-2.143 -0.562)" fill="#8e5a30"/>
    <g id="Group_123" data-name="Group 123" transform="translate(13.374 11.944) rotate(180)">
      <path id="Path_1512" data-name="Path 1512" d="M1,2.9,0,0,2.5.143H4.112V1.395L4.041,3.969l-.358-.286Z" transform="translate(0 2.968)" fill="#f89d35"/>
      <path id="Path_1513" data-name="Path 1513" d="M0,1.573,2.932,1.5,2.61,0,1.216.358Z" transform="translate(2.897 3.969)" fill="#d87c30"/>
      <path id="Path_1514" data-name="Path 1514" d="M0,2.289,1.216,1.144V0Z" transform="translate(2.897 3.218)" fill="#ea8d3a"/>
      <path id="Path_1515" data-name="Path 1515" d="M0,2.074l1.43-.358L1.9.179,1.573,0,0,.93Z" transform="translate(4.112 2.253)" fill="#f89d35"/>
      <path id="Path_1516" data-name="Path 1516" d="M.286,2.217,0,0,1.86,1.287Z" transform="translate(3.826 0.966)" fill="#eb8f35"/>
      <path id="Path_1517" data-name="Path 1517" d="M.358,3.04.536,0,0,1.556Z" transform="translate(5.471 2.432)" fill="#ea8e3a"/>
      <path id="Path_1518" data-name="Path 1518" d="M0,2.181l1.645.036L1.359,0Z" transform="translate(2.467 0.966)" fill="#d87c30"/>
      <path id="Path_1519" data-name="Path 1519" d="M.787,0l3.04.966L2.467,3.147,0,2.968Z" transform="translate(0)" fill="#eb8f35"/>
      <path id="Path_1520" data-name="Path 1520" d="M2.718,2.825,1.18,1.538,0,.107,2.932,0Z" transform="translate(2.897 5.435)" fill="#e8821e"/>
      <path id="Path_1521" data-name="Path 1521" d="M.393,0,0,.823,1.395.465Z" transform="translate(5.435 4.828) rotate(180)" fill="#393939"/>
      <path id="Path_1522" data-name="Path 1522" d="M0,3.683,4.863,0,4.041,2Z" transform="translate(0.751 8.261)" fill="#e88f35"/>
      <path id="Path_1523" data-name="Path 1523" d="M.644,6.115,0,4.148.358,2,.107,1.86l.358-.322-.286-.25L.572.93.322.715.894,0,3.576.822A23.486,23.486,0,0,1,5.507,2.432Q5.471,2.467.644,6.115Z" transform="translate(0.107 5.829)" fill="#8e5a30"/>
    </g>
  </g>
</svg>
